X:280
T: EM KUST MER UG EN MANTEL
N: E0875
O: Europa, Mitteleuropa, Deutschland; Rumaenien, Siebenbuergen
R: Hochzeits -, Ehestands - Lied
M: 2/4
L: 1/8
K: G
D | GABc | ded2 |
cBcd | B2z2 |
GABc | dedc |
GABc | dedc |
BABc | d2c2 |
BABA | G2z

@@@ Tune index: 4593
